X:598
T:Princess Royal
Q:1/2=100
S:Abingdon
N:This is the version I use for the Pat Shaw 3 couple dance.
M:2/2
L:1/8
K:G
P:A
|: dc | "G"B2 "D7"A2 "G"G2 dc | "G"B2 "D7"A2 "G"G2g2 | "C"e3 d "/"c2e2 | "G"d3c "/"B2d2 |\
"Am"c2B2 "A7"A2G2 | "D"FGAF "D7"D2dc | "G"BABG "D7"A2F2 |1 "G"G6 :|2 "G"G8 |
P:B
|: "C"e3e "/"e2d2 | "C"e2f2 "Em"g4 | "G"g2f2 "C"e2d2 | "G"BAGB "D7"A4 | "G"G2G2 "D7"A3A | "G"BAG2 "C"g3f |
"G"g2d2 "C"e4 | "G"d2B2 "C"c4 | "Am"c2B2 "A7"A2G2 | "D"FGAF "D7"D2dc | "G"BABG "D7"A2F2 | "G"G4- G4 :|

